X: 10652
Q: "Slow and distinct."
M: 6/8
L: 1/8
K: G
g |\
dBG TG>AB | E2E TE2c | AFD DEF | G2G TG2g |\
dBG B>cd | E2E TE2c | AFD DEF | TG3 G2 :|\
g/a/ |\
bab afd | efg g>fe | dBg dBG | AFD D2 g/a/ |
bgb afd | efg {a}gfe | f<af g<e^c | d2d Tde=f |\
(ec).e (dB).d | (ca).c (Bg).B | Ace dBG | FAF DEF |\


